X:1
T: Loch Muick
C:Alexander Walker
R:Strathspey
Q: 128
K:F#m
M:4/4
L:1/16
|:C2|FF3 F3C F4 F3G|EE3 E3B, E4 E3G|FF3 F3G A3B c3A|cded cBAG AF3 F2C2|
FF3 F3C F4 F3G|EE3 E3B, E4 E3G|FF3 F3G A3B c3A|e3c cBAG AF3 F2c2|
f3g agfe fc3 c3A|BceB cBAF E3F G3E|f3g agfe fc3 c3f|cB3 e3G F4 F3c|
f3g agfe fc3 c3d|((3e2f2g2) ((3c2d2e2) ((3B2c2e2) GE3|F3C A3F c3B cf3|e3c B3A FFF2 F2:|
